tools/download-figma-icons/icons/outlined-medium/bell.svg

<svg width="24" height="24" viewBox="0 0 24 24" fill="none" xmlns="http://www.w3.org/2000/svg">
<path fill-rule="evenodd" clip-rule="evenodd" d="M4.5 20.25C2.84315 20.25 1.5 18.9069 1.5 17.25C1.5 15.5931 2.84315 14.25 4.5 14.25V9.75C4.5 6.71454 6.31805 4.04227 9.00265 2.87278L9.01253 2.72395C9.15188 1.19649 10.4362 0 12 0C13.6144 0 14.9309 1.27515 14.9974 2.87279C17.682 4.04229 19.5 6.71457 19.5 9.75V14.25C21.1569 14.25 22.5 15.5931 22.5 17.25C22.5 18.9069 21.1569 20.25 19.5 20.25H15.75C15.75 22.3211 14.0711 24 12 24C9.92894 24 8.25001 22.3211 8.25001 20.25H4.5ZM14.25 20.25H9.75001C9.75001 21.4926 10.7574 22.5 12 22.5C13.2426 22.5 14.25 21.4926 14.25 20.25ZM12 1.5C11.1716 1.5 10.5 2.17157 10.5 3L10.5005 3.9389C7.9124 4.6048 6 6.95407 6 9.75V15.75H4.5C3.67157 15.75 3 16.4216 3 17.25C3 18.0784 3.67157 18.75 4.5 18.75H19.5C20.3284 18.75 21 18.0784 21 17.25C21 16.4216 20.3284 15.75 19.5 15.75H18V9.75C18 6.95434 16.088 4.60525 13.5003 3.9391L13.5 3C13.5 2.17157 12.8284 1.5 12 1.5Z" fill="black"/>
</svg>

<svg xmlns="http://www.w3.org/2000/svg" width="24" height="24" fill="none" viewBox="0 0 24 24"><path fill="currentColor" fill-rule="evenodd" d="M4.5 20.25a3 3 0 1 1 0-6v-4.5a7.5 7.5 0 0 1 4.503-6.877l.01-.15a3 3 0 0 1 5.984.15A7.5 7.5 0 0 1 19.5 9.75v4.5a3 3 0 1 1 0 6h-3.75a3.75 3.75 0 1 1-7.5 0zm9.75 0h-4.5a2.25 2.25 0 0 0 4.5 0M12 1.5A1.5 1.5 0 0 0 10.5 3v.939A6 6 0 0 0 6 9.75v6H4.5a1.5 1.5 0 0 0 0 3h15a1.5 1.5 0 0 0 0-3H18v-6a6 6 0 0 0-4.5-5.81V3A1.5 1.5 0 0 0 12 1.5" clip-rule="evenodd"/></svg>
